src/assets/svg/icons/fa/nuevos/classic/light/square-dashed classic light.svg

<svg xmlns="http://www.w3.org/2000/svg" viewBox="0 0 448 512"><!--! Font Awesome Pro 6.4.0 by @fontawesome - https://fontawesome.com License - https://fontawesome.com/license (Commercial License) Copyright 2023 Fonticons, Inc. --><path d="M88 32h24c8.8 0 16 7.2 16 16s-7.2 16-16 16H88c-30.9 0-56 25.1-56 56v24c0 8.8-7.2 16-16 16s-16-7.2-16-16V120C0 71.4 39.4 32 88 32zM16 192c8.8 0 16 7.2 16 16v96c0 8.8-7.2 16-16 16s-16-7.2-16-16V208c0-8.8 7.2-16 16-16zm416 0c8.8 0 16 7.2 16 16v96c0 8.8-7.2 16-16 16s-16-7.2-16-16V208c0-8.8 7.2-16 16-16zm0-32c-8.8 0-16-7.2-16-16V120c0-30.9-25.1-56-56-56H336c-8.8 0-16-7.2-16-16s7.2-16 16-16h24c48.6 0 88 39.4 88 88v24c0 8.8-7.2 16-16 16zm16 208v24c0 48.6-39.4 88-88 88H336c-8.8 0-16-7.2-16-16s7.2-16 16-16h24c30.9 0 56-25.1 56-56V368c0-8.8 7.2-16 16-16s16 7.2 16 16zM32 368v24c0 30.9 25.1 56 56 56h24c8.8 0 16 7.2 16 16s-7.2 16-16 16H88c-48.6 0-88-39.4-88-88V368c0-8.8 7.2-16 16-16s16 7.2 16 16zM176 480c-8.8 0-16-7.2-16-16s7.2-16 16-16h96c8.8 0 16 7.2 16 16s-7.2 16-16 16H176zM160 48c0-8.8 7.2-16 16-16h96c8.8 0 16 7.2 16 16s-7.2 16-16 16H176c-8.8 0-16-7.2-16-16z"/></svg>

<svg xmlns="http://www.w3.org/2000/svg" viewBox="0 0 448 512"><path d="M88 32H112C120.8 32 128 39.16 128 48C128 56.84 120.8 64 112 64H88C57.07 64 32 89.07 32 120V144C32 152.8 24.84 160 16 160C7.164 160 0 152.8 0 144V120C0 71.4 39.4 32 88 32zM32 208V304C32 312.8 24.84 320 16 320C7.164 320 0 312.8 0 304V208C0 199.2 7.164 192 16 192C24.84 192 32 199.2 32 208zM448 208V304C448 312.8 440.8 320 432 320C423.2 320 416 312.8 416 304V208C416 199.2 423.2 192 432 192C440.8 192 448 199.2 448 208zM416 144V120C416 89.07 390.9 64 360 64H336C327.2 64 320 56.84 320 48C320 39.16 327.2 32 336 32H360C408.6 32 448 71.4 448 120V144C448 152.8 440.8 160 432 160C423.2 160 416 152.8 416 144zM448 392C448 440.6 408.6 480 360 480H336C327.2 480 320 472.8 320 464C320 455.2 327.2 448 336 448H360C390.9 448 416 422.9 416 392V368C416 359.2 423.2 352 432 352C440.8 352 448 359.2 448 368V392zM32 392C32 422.9 57.07 448 88 448H112C120.8 448 128 455.2 128 464C128 472.8 120.8 480 112 480H88C39.4 480 0 440.6 0 392V368C0 359.2 7.164 352 16 352C24.84 352 32 359.2 32 368V392zM176 480C167.2 480 160 472.8 160 464C160 455.2 167.2 448 176 448H272C280.8 448 288 455.2 288 464C288 472.8 280.8 480 272 480H176zM176 32H272C280.8 32 288 39.16 288 48C288 56.84 280.8 64 272 64H176C167.2 64 160 56.84 160 48C160 39.16 167.2 32 176 32z"/></svg>
